ncols         10
nrows         10
xllcorner     563435
yllcorner     5258305
cellsize      10
NODATA_value  -9999.
2.274 3.419 3.214 2.412 2.274 1.924 1.924 1.924 1.673 1.769
2.274 2.274 1.701 1.601 1.701 1.701 1.612 1.394 1.240 1.245
2.274 1.701 1.601 1.371 1.508 1.172 1.113 1.230 1.230 1.245
1.701 1.582 1.329 1.573 1.283 1.230 1.230 1.167 1.434 1.769
1.431 1.434 1.452 1.230 1.167 1.230 1.245 1.434 1.434 2.331
1.434 1.283 1.167 1.245 1.283 1.245 1.769 2.331 4.914 9.850
1.283 1.245 1.434 1.434 1.673 2.331 4.914 10.00 6.907 2.331
1.434 1.769 1.987 2.331 2.331 9.850 6.606 6.907 2.331 1.987
1.987 2.331 2.331 6.907 10.00 6.907 3.469 2.331 1.673 1.987
3.469 6.907 10.00 10.00 6.907 3.264 1.987 1.673 1.673 1.434
