ncols         10
nrows         10
xllcorner     563435
yllcorner     5258305
cellsize      10
NODATA_value  -9999.
0.1000E-06 0.1000E-06 0.1000E-06 0.1000E-06 0.1000E-06 0.1000E-06 0.1000E-06 0.1000E-06 0.3000E-06 0.3000E-06
0.1000E-06 0.1000E-06 0.1000E-06 0.1000E-06 0.1000E-06 0.1000E-06 0.5000E-06 0.5000E-06 0.4498E-06 0.3000E-06
0.1000E-06 0.1000E-06 0.1000E-06 0.5184E-06 0.8440E-06 0.6902E-06 0.4036E-06 0.3000E-06 0.3000E-06 0.3000E-06
0.1000E-06 0.6000E-06 0.6648E-06 0.6292E-06 0.3000E-06 0.3000E-06 0.3000E-06 0.3000E-06 0.3000E-06 0.3000E-06
0.1100E-05 0.3000E-06 0.3000E-06 0.3000E-06 0.3000E-06 0.3000E-06 0.3000E-06 0.3000E-06 0.3000E-06 0.3000E-06
0.3000E-06 0.3000E-06 0.3000E-06 0.3000E-06 0.3000E-06 0.3000E-06 0.3000E-06 0.3000E-06 0.3000E-06 0.3000E-06
0.3000E-06 0.3000E-06 0.3000E-06 0.3000E-06 0.3000E-06 0.3000E-06 0.3000E-06 0. 0.3000E-06 0.3000E-06
0.3000E-06 0.3000E-06 0.3000E-06 0.3000E-06 0.3000E-06 0.3000E-06 0.6200E-06 0.3000E-06 0.3000E-06 0.3000E-06
0.3000E-06 0.3000E-06 0.3000E-06 0.3000E-06 0.3000E-06 0.3000E-06 0.3000E-06 0.3000E-06 0.3000E-06 0.3000E-06
0.3000E-06 0.3000E-06 0.3000E-06 0.3000E-06 0.3000E-06 0.3000E-06 0.3000E-06 0.3000E-06 0.3000E-06 0.3000E-06
