ncols         10
nrows         10
xllcorner     563435
yllcorner     5258305
cellsize      10
NODATA_value  -9999.
0.1000E-06 0.1000E-06 0.1000E-06 0.1000E-06 0.1000E-06 0.1000E-06 0.1000E-06 0.1000E-06 0.9000E-04 0.9000E-04
0.1000E-06 0.1000E-06 0.1000E-06 0.1000E-06 0.1000E-06 0.1000E-06 0.1000E-03 0.1000E-03 0.1000E-03 0.9000E-04
0.1000E-06 0.1000E-06 0.1000E-06 0.1000E-03 0.1000E-03 0.1000E-03 0.1000E-03 0.1000E-03 0.1000E-03 0.1000E-03
0.1000E-06 0.1000E-03 0.1000E-03 0.1000E-03 0.1000E-03 0.1000E-03 0.1000E-03 0.1000E-03 0.1000E-03 0.1000E-03
0.1000E-03 0.1000E-03 0.1000E-03 0.1000E-03 0.1000E-03 0.1000E-03 0.1000E-03 0.1000E-03 0.1000E-03 0.1000E-03
0.1000E-03 0.1000E-03 0.1000E-03 0.1000E-03 0.1000E-03 0.1000E-03 0.1000E-03 0.1000E-03 0.1000E-03 0.1000E-03
0.1000E-03 0.1000E-03 0.1000E-03 0.1000E-03 0.1000E-03 0.1000E-03 0.1000E-03 0. 0.1000E-03 0.9000E-04
0.1000E-03 0.1000E-03 0.1000E-03 0.1000E-03 0.1000E-03 0.1000E-03 0.1000E-03 0.9000E-04 0.9000E-04 0.9000E-04
0.1000E-03 0.1000E-03 0.1000E-03 0.1000E-03 0.1000E-03 0.9000E-04 0.9000E-04 0.9000E-04 0.9000E-04 0.9000E-04
0.9464E-04 0.1000E-03 0.1000E-03 0.1000E-03 0.9000E-04 0.9000E-04 0.9000E-04 0.9000E-04 0.9000E-04 0.9000E-04
