ncols         10
nrows         10
xllcorner     563435
yllcorner     5258305
cellsize      10
NODATA_value  -9999.
0.2000E-06 0.2000E-06 0.2000E-06 0.2000E-06 0.2000E-06 0.2000E-06 0.2000E-06 0.2000E-06 0. 0.
0.4000E-06 0.4000E-06 0.2820E-06 0.3180E-06 0.5180E-06 0.3322E-06 0. 0. 0. 0.
0.6000E-06 0.4360E-06 0.5580E-06 0. 0. 0. 0. 0. 0. 0.
0.8000E-06 0. 0. 0. 0. 0. 0. 0. 0. 0.
0. 0. 0. 0. 0. 0. 0. 0. 0. 0.
0. 0. 0. 0. 0. 0. 0. 0. 0. 0.
0. 0. 0. 0. 0. 0. 0. 0.3200E-06 0. 0.
0. 0. 0. 0. 0. 0. 0. 0. 0. 0.
0. 0. 0. 0. 0. 0. 0. 0. 0. 0.
0. 0. 0. 0. 0. 0. 0. 0. 0. 0.
