ncols         10
nrows         10
xllcorner     563435
yllcorner     5258305
cellsize      10
NODATA_value  -9999.
0.8990E-04 0.8990E-04 0.8990E-04 0.8990E-04 0.8990E-04 0.8990E-04 0.8990E-04 0.8990E-04 0. 0.
0.1798E-03 0.1798E-03 0.1268E-03 0.1429E-03 0.2328E-03 0.1493E-03 0.7990E-04 0.7990E-04 0.5734E-04 0.
0.2697E-03 0.1960E-03 0.2508E-03 0.8815E-04 0.2345E-03 0.1654E-03 0.3659E-04 0.8436E-04 0.7333E-04 0.2945E-04
0.3596E-03 0.1248E-03 0.1540E-03 0.2040E-03 0.1083E-03 0.1800E-03 0.1274E-03 0.3754E-04 0.6984E-04 0.6271E-04
0.3496E-03 0.4118E-04 0.1790E-03 0.1123E-03 0.1442E-03 0.1383E-03 0.1484E-03 0.9592E-04 0.3283E-04 0.8651E-04
0.1333E-03 0.2271E-03 0.3273E-04 0.1826E-03 0.1494E-03 0.9773E-04 0.1592E-03 0.1227E-03 0.4691E-04 0.7651E-04
0.1233E-03 0.6086E-04 0.1674E-03 0.1093E-03 0.1115E-03 0.1700E-03 0.1200E-03 0.3758E-03 0.6651E-04 0.
0.2848E-04 0.1108E-03 0.1013E-03 0.1529E-03 0.6315E-04 0.7116E-03 0.3658E-03 0. 0. 0.
0.1848E-04 0.6620E-04 0.4999E-04 0.1561E-03 0.8274E-03 0. 0. 0. 0. 0.
0. 0.4290E-04 0.1100E-03 0.9735E-03 0. 0. 0. 0. 0. 0.
