ncols         10
nrows         10
xllcorner     563435
yllcorner     5258305
cellsize      10
NODATA_value  -9999.
2.000 2.000 2.000 2.000 2.000 2.000 2.000 2.000 2.000 2.000
2.000 2.000 2.000 2.000 2.000 2.000 2.000 2.000 2.000 1.900
2.000 2.000 2.000 2.000 2.000 2.000 1.500 1.750 1.750 1.900
2.000 2.000 2.000 2.000 2.000 1.750 1.750 1.500 2.000 2.000
2.000 2.000 2.000 1.750 1.500 1.750 1.900 2.000 2.000 2.000
2.000 2.000 1.500 1.900 2.000 1.900 2.000 2.000 2.000 2.000
2.000 1.900 2.000 2.000 2.000 2.000 2.000 2.000 2.000 2.000
2.000 2.000 2.000 2.000 2.000 2.000 2.000 2.000 2.000 2.000
2.000 2.000 2.000 2.000 2.000 2.000 2.000 2.000 2.000 2.000
2.000 2.000 2.000 2.000 2.000 2.000 2.000 2.000 2.000 2.000
